src/icons/bug.svg

<svg viewBox="0 0 20 20" fill="none" xmlns="http://www.w3.org/2000/svg">
<path d="M9.99675 18.3334C11.9789 18.3334 13.6936 16.2072 13.6936 13.9233C13.6936 13.6146 13.6456 13.3609 13.5427 13.1414C13.7142 13.1894 13.8925 13.2374 14.064 13.2785C14.5166 13.4157 14.6538 13.6146 14.5921 14.0193L14.0983 17.2497C14.0297 17.6887 14.304 17.9425 14.6607 17.9425C15.0379 17.9425 15.2094 17.7093 15.2711 17.332L15.8266 13.7998C15.9638 12.9288 15.614 12.4555 14.6675 12.2429L11.5605 11.5227L11.5537 11.4541C11.828 11.3238 12.0132 11.0632 12.1092 10.782L14.256 10.5076C15.1819 10.391 15.5935 9.85605 15.5935 8.94384L15.5935 6.5913C15.5935 6.22093 15.3808 6.00145 15.0105 6.00145C14.6401 6.00145 14.4275 6.22093 14.4275 6.5913V8.69693C14.4275 9.21819 14.1463 9.38966 13.673 9.44453L12.1641 9.63657C12.0887 9.43081 11.9515 9.24562 11.7663 9.12217V9.05358C12.9597 8.8341 13.6181 8.11394 13.6181 7.05769C13.6181 6.21407 13.3095 5.43218 12.8088 4.82176L12.898 4.76003C13.6044 4.25248 13.7279 3.5186 13.2752 2.70241L12.8774 2.03712C12.7402 1.77649 12.5756 1.66675 12.3356 1.66675C12.0338 1.66675 11.8006 1.89309 11.8006 2.18801C11.8006 2.31833 11.8212 2.39377 11.8966 2.5378L12.2395 3.07278C12.459 3.42944 12.4453 3.74494 12.1572 3.99185C12.1229 4.02614 12.0887 4.04672 12.0475 4.08101C11.4645 3.66949 10.7581 3.4363 9.99675 3.4363C9.24915 3.4363 8.54956 3.66949 7.96657 4.07416C7.93227 4.04672 7.89798 4.01929 7.86369 3.98499C7.57562 3.74494 7.5619 3.42944 7.78138 3.07278L8.12432 2.5378C8.20662 2.39377 8.22034 2.31833 8.22034 2.18801C8.22034 1.89309 7.994 1.66675 7.68536 1.66675C7.45216 1.66675 7.2807 1.77649 7.14352 2.03712L6.74572 2.70241C6.29304 3.5186 6.4165 4.25248 7.12295 4.76003L7.19839 4.8149C6.69771 5.41846 6.38221 6.20721 6.38221 7.05769C6.38221 8.11394 7.04064 8.8341 8.2272 9.05358V9.12217C8.04201 9.24562 7.9117 9.43081 7.82939 9.63657L6.32734 9.44453C5.85408 9.38966 5.57288 9.21819 5.57288 8.69693V6.5913C5.57288 6.22093 5.36026 6.00145 4.98989 6.00145C4.61952 6.00145 4.40004 6.22093 4.40004 6.5913V8.94384C4.40004 9.85605 4.81842 10.391 5.74435 10.5076L7.89112 10.782C7.98028 11.0632 8.17233 11.3238 8.44668 11.4541V11.5227L5.33282 12.2429C4.38632 12.4555 4.03653 12.9288 4.1737 13.7998L4.72926 17.332C4.79098 17.7093 4.96245 17.9425 5.33968 17.9425C5.69633 17.9425 5.97068 17.6887 5.9021 17.2497L5.40827 14.0193C5.34654 13.6078 5.48371 13.4157 5.94325 13.2785C6.11472 13.2305 6.28618 13.1894 6.45765 13.1414C6.35477 13.3609 6.30676 13.6146 6.30676 13.9233C6.30676 16.2072 8.02144 18.3334 9.99675 18.3334Z" fill="currentColor"/>
</svg>

<svg viewBox="0 0 20 20" fill="none" xmlns="http://www.w3.org/2000/svg"><path d="M9.997 18.333c1.982 0 3.697-2.126 3.697-4.41 0-.308-.048-.562-.151-.782.171.048.35.096.521.137.453.138.59.337.528.741l-.494 3.23c-.068.44.206.694.563.694.377 0 .548-.234.61-.611l.556-3.532c.137-.871-.213-1.345-1.16-1.557l-3.107-.72-.006-.069c.274-.13.46-.39.555-.672l2.147-.274c.926-.117 1.338-.652 1.338-1.564V6.59c0-.37-.213-.59-.583-.59s-.583.22-.583.59v2.106c0 .521-.282.693-.755.748l-1.509.192a1.053 1.053 0 0 0-.398-.515v-.068c1.194-.22 1.852-.94 1.852-1.996 0-.844-.309-1.626-.81-2.236l.09-.062c.706-.508.83-1.241.377-2.058l-.398-.665c-.137-.26-.301-.37-.541-.37a.52.52 0 0 0-.535.521c0 .13.02.206.096.35l.342.535c.22.356.206.672-.082.919-.034.034-.068.055-.11.089a3.536 3.536 0 0 0-2.05-.645c-.748 0-1.447.233-2.03.638-.035-.027-.069-.055-.103-.089-.288-.24-.302-.556-.083-.912l.343-.535a.59.59 0 0 0 .096-.35.516.516 0 0 0-.535-.521c-.233 0-.404.11-.541.37l-.398.665c-.453.817-.33 1.55.377 2.058l.075.055a3.524 3.524 0 0 0-.816 2.243c0 1.056.659 1.776 1.845 1.996v.068a1.095 1.095 0 0 0-.398.515l-1.502-.192c-.473-.055-.754-.227-.754-.748V6.59c0-.37-.213-.59-.583-.59s-.59.22-.59.59v2.353c0 .912.418 1.447 1.344 1.564l2.147.274c.09.281.281.542.556.672v.069l-3.114.72c-.947.213-1.296.686-1.16 1.557l.556 3.532c.062.377.233.61.61.61.357 0 .632-.253.563-.692l-.494-3.23c-.061-.412.076-.604.535-.742.172-.048.343-.089.515-.137-.103.22-.151.474-.151.782 0 2.284 1.714 4.41 3.69 4.41z" fill="currentColor"/></svg>
